!!!OTL: "Klage" FEINS LIEBCHEN TRAU DU NICHT
!!!ARE: Europa, Mitteleuropa, Deutschland, Niederrhein
!!!SCT: Z1251
!!!YEM: Copyright 1995, estate of Helmut Schaffrath.
**kern
*ICvox
*Ivox
*M4/4
*k[f#c#g#d#]
*E:
{8g#
8f#
=1
4.e
8f#
8g#
8f#
8g#
8a
=2
2b}
{2cc#
=3
8cc#
8b
8b
8g#
8b
8a
4a
=4
4g#
4r}
{2b
=5
8g#
8b
4b
4.cc#
8b
=6
8cc#
8b
8a}
{8g#
4.a
8a
=7
4.b
8cc#
8b
8a
8g#
8a
=8
4b
8b
8a
4g#}
==
!!!AGN: Liebes - Lied, verlassene Liebe
!!!ONB: ESAC (Essen Associative Code) Database: ZUCCAL
!!!AMT: simple quadruple
!!!AIN: vox
!!!EED: Helmut Schaffrath
!!!EEV: 1.0
*-
